X: 14
T: Eavesdropper, The
Z: shanachie
S: https://thesession.org/tunes/389#setting51912
R: jig
M: 6/8
L: 1/8
K: Gmaj
|:DBB BAG|Bdd dBG|cde dBG|BAA AGE|
DBB BAG|Bdd dBG|cde dBA|1 BGF G2E:|2 BGF G2d||
|:gfg afd|efg dBG|cde dBG|BAA A2d|
gab afd|efg dBG|cde dBA|1 BGF G2d:|2 BGF G3||

